www/assets/images/test_icons/flags/DO.svg

<svg fill="none" height="15" viewBox="0 0 21 15" width="21" xmlns="http://www.w3.org/2000/svg" xmlns:xlink="http://www.w3.org/1999/xlink"><mask id="a" height="15" maskUnits="userSpaceOnUse" width="21" x="0" y="0"><path d="m19 0h-17c-1.10457 0-2 .89543-2 2v11c0 1.1046.89543 2 2 2h17c1.1046 0 2-.8954 2-2v-11c0-1.10457-.8954-2-2-2z" fill="#fff"/></mask><g mask="url(#a)"><path d="m19 0h-17c-1.10457 0-2 .89543-2 2v11c0 1.1046.89543 2 2 2h17c1.1046 0 2-.8954 2-2v-11c0-1.10457-.8954-2-2-2z" fill="#002b64"/><path clip-rule="evenodd" d="m0 9h9v6h-9zm12-9h9v6h-9z" fill="#d0091e" fill-rule="evenodd"/><path clip-rule="evenodd" d="m9 9h-9v-3h9v-6h3v6h9v3h-9v6h-3z" fill="#fff" fill-rule="evenodd"/><path d="m10.5 9c.8284 0 1.5-.67157 1.5-1.5s-.6716-1.5-1.5-1.5c-.82843 0-1.5.67157-1.5 1.5s.67157 1.5 1.5 1.5z" fill="#007a1b"/><path d="m10.5 8c.2761 0 .5-.22386.5-.5s-.2239-.5-.5-.5-.5.22386-.5.5.2239.5.5.5z" fill="#002b64"/><path clip-rule="evenodd" d="m9.5 7c.276 0 .5-.224.5-.5s-.224-.5-.5-.5-.5.224-.5.5.224.5.5.5zm2 0c.276 0 .5-.224.5-.5s-.224-.5-.5-.5-.5.224-.5.5.224.5.5.5z" fill="#fdd200" fill-rule="evenodd"/><path d="m19 .5h-17c-.82843 0-1.5.67157-1.5 1.5v11c0 .8284.67157 1.5 1.5 1.5h17c.8284 0 1.5-.6716 1.5-1.5v-11c0-.82843-.6716-1.5-1.5-1.5z" stroke="#000" stroke-opacity=".1"/></g></svg>

<svg width="21" height="15" viewBox="0 0 21 15" fill="none" xmlns="http://www.w3.org/2000/svg">
<mask id="mask0_3_163" style="mask-type:alpha" maskUnits="userSpaceOnUse" x="0" y="0" width="21" height="15">
<path d="M19 0H2C0.89543 0 0 0.89543 0 2V13C0 14.1046 0.89543 15 2 15H19C20.1046 15 21 14.1046 21 13V2C21 0.89543 20.1046 0 19 0Z" fill="white"/>
</mask>
<g mask="url(#mask0_3_163)">
<path d="M19 0H2C0.89543 0 0 0.89543 0 2V13C0 14.1046 0.89543 15 2 15H19C20.1046 15 21 14.1046 21 13V2C21 0.89543 20.1046 0 19 0Z" fill="#002B64"/>
<path fill-rule="evenodd" clip-rule="evenodd" d="M0 9H9V15H0V9ZM12 0H21V6H12V0Z" fill="#D0091E"/>
<path fill-rule="evenodd" clip-rule="evenodd" d="M9 9H0V6H9V0H12V6H21V9H12V15H9V9Z" fill="white"/>
<path d="M10.5 9C11.3284 9 12 8.32843 12 7.5C12 6.67157 11.3284 6 10.5 6C9.67157 6 9 6.67157 9 7.5C9 8.32843 9.67157 9 10.5 9Z" fill="#007A1B"/>
<path d="M10.5 8C10.7761 8 11 7.77614 11 7.5C11 7.22386 10.7761 7 10.5 7C10.2239 7 10 7.22386 10 7.5C10 7.77614 10.2239 8 10.5 8Z" fill="#002B64"/>
<path fill-rule="evenodd" clip-rule="evenodd" d="M9.5 7C9.776 7 10 6.776 10 6.5C10 6.224 9.776 6 9.5 6C9.224 6 9 6.224 9 6.5C9 6.776 9.224 7 9.5 7ZM11.5 7C11.776 7 12 6.776 12 6.5C12 6.224 11.776 6 11.5 6C11.224 6 11 6.224 11 6.5C11 6.776 11.224 7 11.5 7Z" fill="#FDD200"/>
<path d="M19 0.5H2C1.17157 0.5 0.5 1.17157 0.5 2V13C0.5 13.8284 1.17157 14.5 2 14.5H19C19.8284 14.5 20.5 13.8284 20.5 13V2C20.5 1.17157 19.8284 0.5 19 0.5Z" stroke="black" stroke-opacity="0.1"/>
</g>
</svg>
